X: 2 % start of header
T:Torus:Taurus Tune
T:8 of 100,000,000,000,000
C: (Sid.)
O: Jeff Minter
R:Procedurally Generated
L: 1/8
K: D % scale: C major
V:1 name="Voice 1"
^A,16    |     |     |     | ^F,16    |     |     |     | ^A,16    |     |     |     | ^D,16    |     |     |     | :|
V:2 name="Voice 2"
F4    | ^C4    | F4    | ^A,4    | ^C4    | A,4    | ^C4    | ^F,4    | F4    | ^C4    | F4    | ^A,4    | ^A,4    | ^F,4    | ^A,4    | ^D,4    | :|
V:3 name="Voice 3"
c1^G1c1F1|^G1E1^G1^C1|c1^G1c1F1|F1^C1F1^A,1|^G1E1^G1^C1|E1C1E1A,1|^G1E1^G1^C1|^C1A,1^C1^F,1|c1^G1c1F1|^G1E1^G1^C1|c1^G1c1F1|F1^C1F1^A,1|F1^C1F1^A,1|^C1A,1^C1^F,1|F1^C1F1^A,1|^A,1^F,1^A,1^D,1|:|
